dist/svgs/crypto-icons/icons/dnt.svg

<?xml version="1.0" encoding="UTF-8" standalone="yes"?>
<svg xmlns="http://www.w3.org/2000/svg" xmlns:xlink="http://www.w3.org/1999/xlink" width="490.66666666666663px" height="512px" viewBox="0 0 368 384" version="1.1">
  <g id="surface1">
    <path style=" stroke:none;fill-rule:nonzero;fill:rgb(0%,0%,0%);fill-opacity:1;" d="M 340.800781 244.398438 C 326.398438 243.601562 334.398438 220.800781 328 194.800781 C 320.398438 166 331.601562 146 346.398438 146.800781 C 351.601562 147.199219 358.398438 150 365.601562 154.800781 C 362.800781 141.601562 358 129.199219 352 119.199219 C 338.800781 97.199219 310 65.199219 274 40 L 274 281.199219 C 274 294.800781 262.800781 305.601562 249.601562 305.601562 C 240 305.601562 231.601562 300 227.601562 291.601562 C 213.199219 300.398438 196.398438 305.601562 178 305.601562 C 125.601562 305.601562 83.199219 263.199219 83.199219 210.800781 C 83.199219 158.398438 125.601562 116 178 116 C 195.199219 116 211.199219 120.800781 225.199219 128.800781 L 225.199219 35.199219 C 225.199219 27.601562 228.398438 20.800781 234 16.398438 C 187.199219 -5.199219 134.800781 -9.601562 90 30 C 14.800781 96.800781 -22.800781 190 14.800781 282.800781 C 15.601562 284.800781 16.398438 286.800781 17.199219 288.398438 C 18.398438 286 19.601562 284.398438 21.601562 282.398438 C 41.199219 262.398438 62.800781 303.199219 108.800781 326.800781 C 138 341.601562 154.800781 361.199219 161.199219 379.601562 C 204 384.800781 248 378 283.199219 357.601562 C 329.199219 331.199219 356 283.199219 365.601562 234.398438 C 356.398438 241.601562 346.800781 244.800781 340.800781 244.398438 Z M 184 54.800781 C 194.800781 54.398438 204.800781 67.199219 205.199219 73.199219 C 205.601562 79.199219 196 76.800781 185.601562 80.398438 C 174 84.398438 165.601562 80.800781 165.199219 74.800781 C 164.800781 68.800781 172.800781 55.199219 184 54.800781 Z M 184 54.800781 "/>
    <path style=" stroke:none;fill-rule:nonzero;fill:rgb(0%,0%,0%);fill-opacity:1;" d="M 160.398438 246 C 183.601562 259.199219 211.601562 254 216.800781 224.398438 C 219.601562 207.199219 218 180.398438 202.800781 172 C 152.398438 143.199219 110 217.199219 160.398438 246 Z M 160.398438 246 "/>
  </g>
</svg>

<svg xmlns="http://www.w3.org/2000/svg" viewBox="0 0 368 384"><path d="M340.8 244.398c-14.402-.796-6.402-23.597-12.8-49.597-7.602-28.801 3.602-48.801 18.398-48 5.204.398 12 3.199 19.204 8C362.8 141.6 358 129.199 352 119.199c-13.2-22-42-54-78-79.199v241.2c0 13.6-11.2 24.402-24.398 24.402-9.602 0-18-5.602-22-14-14.403 8.796-31.204 14-49.602 14-52.398 0-94.8-42.403-94.8-94.801C83.2 158.398 125.601 116 178 116c17.2 0 33.2 4.8 47.2 12.8V35.2c0-7.598 3.198-14.4 8.8-18.802C187.2-5.199 134.8-9.602 90 30 14.8 96.8-22.8 190 14.8 282.8c.802 2 1.598 4 2.4 5.598 1.198-2.398 2.402-4 4.402-6 19.597-20 41.199 20.801 87.199 44.403 29.199 14.8 46 34.398 52.398 52.8 42.801 5.2 86.801-1.601 122-22C329.2 331.2 356 283.2 365.602 234.399c-9.204 7.204-18.801 10.403-24.801 10zM184 54.801c10.8-.403 20.8 12.398 21.2 18.398.402 6-9.2 3.602-19.598 7.2-11.602 4-20 .402-20.403-5.598-.398-6 7.602-19.602 18.801-20zm0 0"/><path d="M160.398 246c23.204 13.2 51.204 8 56.403-21.602 2.8-17.199 1.199-44-14-52.398-50.403-28.8-92.801 45.2-42.403 74zm0 0"/></svg>
